public/logo_mobile.svg

<svg width="43" height="40" viewBox="0 0 43 40" fill="none" xmlns="http://www.w3.org/2000/svg">
<path d="M9.04698 21.3793C9.28382 18.7192 10.989 17.4384 14.2099 17.4384C18.5676 17.4384 19.3729 18.4236 19.3729 22.8079V26.5517C19.3729 30.8867 18.5676 31.8719 14.2099 31.8719C11.0364 31.8719 9.33118 30.8867 9.04698 28.9655V21.3793ZM0 0V39.4089H8.76279V32.3153C9.71011 37.4384 12.7889 40 18.0466 40C26.8568 40 28.8461 37.7833 28.8461 26.7488V22.5123C28.8461 11.4778 26.9041 9.26108 18.5203 9.26108C12.8363 9.26108 10.089 10.5911 8.99962 15.1724V0H0Z" fill="#FAFAFA"/>
<path d="M43 31H35V39H43V31Z" fill="#FAFAFA"/>
</svg>

<svg xmlns="http://www.w3.org/2000/svg" width="43" height="40" fill="#fafafa" xmlns:v="https://vecta.io/nano"><path d="M9.047 21.379c.237-2.66 1.942-3.941 5.163-3.941 4.358 0 5.163.985 5.163 5.369v3.744c0 4.335-.805 5.32-5.163 5.32-3.173 0-4.879-.985-5.163-2.906v-7.586zM0 0v39.409h8.763v-7.094C9.71 37.438 12.789 40 18.047 40c8.81 0 10.799-2.217 10.799-13.251v-4.236c0-11.034-1.942-13.251-10.326-13.251-5.684 0-8.431 1.33-9.521 5.911V0H0zm43 31h-8v8h8v-8z"/></svg>
